X: 1
T:I buried my wife and danced on top of her
M:6/8
R:Jig
K:D
A|DAD D2G|AdB =cAF|G3
BAG|FAA GEA|DAD F2G|AdB =cAF| G3 BAG|AFA D2:| A|d2 e (3gfe d|faf {a}gfe|d2 e (3gfe d|dcA
dcA|d2 e (3gfe d| faf {a}gfe|dcA BAG|AFA D:|
